dest/img/img-trust-1.svg

<svg fill="none" height="40" viewBox="0 0 133 40" width="133" xmlns="http://www.w3.org/2000/svg"><g clip-rule="evenodd" fill="#576472" fill-rule="evenodd"><path d="m82.507 31.2817c-7.7 5.6877-18.9 8.7179-28.56 8.7179-13.5334 0-25.6667-4.9883-34.9067-13.2866-.7-.6527-.0933-1.5385.7934-1.0257 9.94 5.7809 22.2133 9.2308 34.9066 9.2308 8.54 0 17.9667-1.7716 26.6467-5.4546 1.3066-.5128 2.38.8858 1.12 1.8182z"/><path d="m85.7275 27.5991c-.98-1.2588-6.5333-.6061-9.0067-.2797-.7466.0932-.8866-.5595-.1866-1.0257 4.4333-3.1235 11.6666-2.1911 12.5066-1.1655.84 1.0257-.2333 8.2984-4.3866 11.7483-.6534.5128-1.26.2331-.98-.4662.9333-2.331 3.0333-7.5059 2.0533-8.8112z"/><path d="m76.8607 4.38217v-3.03029c0-.466201.3267-.745923.7467-.745923h13.5333c.42 0 .7933.326342.7933.745923v2.56409c0 .41958-.3733.97902-1.0266 1.91142l-7 9.97661c2.6133-.0466 5.3666.3264 7.7 1.6317.5133.2798.6533.746.7 1.1655v3.2168c0 .4662-.4667.979-.98.6993-4.1534-2.1911-9.7067-2.4242-14.28.0466-.4667.2331-.98-.2331-.98-.6993v-3.0769c0-.4662 0-1.3053.5133-2.0513l8.12-11.60831h-7.0467c-.42 0-.7933-.32634-.7933-.74592z"/><path d="m27.533 23.1701h-4.1067c-.3733-.0466-.6999-.3263-.7466-.6993v-21.07216c0-.419576.3733-.745918.7933-.745918h3.8267c.42 0 .7.32634.7467.699298v2.75057h.0933c.98-2.65733 2.8933-3.916067 5.4133-3.916067 2.5667 0 4.2 1.258737 5.32 3.916067.98-2.65733 3.2667-3.916067 5.6933-3.916067 1.7267 0 3.5934.699299 4.76 2.330997 1.3067 1.77155 1.0267 4.33565 1.0267 6.62003v13.33325c0 .4196-.3733.7459-.7933.7459h-4.06c-.42-.0466-.7467-.3729-.7467-.7459v-11.1887c0-.8858.0933-3.12358-.0933-3.96274-.3267-1.3986-1.2134-1.81817-2.4267-1.81817-.98 0-2.0533.65268-2.4733 1.72494s-.3734 2.84377-.3734 4.05597v11.1887c0 .4196-.3733.7459-.7933.7459h-4.1067c-.42-.0466-.7466-.3729-.7466-.7459v-11.1887c0-2.33104.3733-5.82753-2.52-5.82753-2.94 0-2.8467 3.35663-2.8467 5.82753v11.1887c-.0467.373-.3733.6993-.84.6993z"/><path d="m103.6.186523c6.113 0 9.427 5.221427 9.427 11.888077 0 6.4335-3.64 11.5617-9.427 11.5617-5.9735 0-9.2401-5.2214-9.2401-11.7482-.0467-6.57339 3.2666-11.701577 9.2401-11.701577zm0 4.335647c-3.033 0-3.22 4.14918-3.22 6.71323 0 2.5641-.047 8.0653 3.173 8.0653 3.174 0 3.36-4.4289 3.36-7.1329 0-1.7715-.093-3.91603-.606-5.59435-.467-1.49183-1.4-2.05128-2.707-2.05128z"/><path d="m120.914 23.1701h-4.107c-.42-.0466-.746-.3729-.746-.7459v-21.1188c.046-.372961.373-.6993.793-.6993h3.827c.373 0 .653.279728.746.60607v3.21677h.094c1.166-2.89044 2.753-4.242417 5.6-4.242417 1.82 0 3.64.652673 4.806 2.470847 1.074 1.67832 1.074 4.52213 1.074 6.57341v13.28662c-.047.373-.374.6527-.794.6527h-4.106c-.374-.0466-.7-.3263-.747-.6527v-11.4684c0-2.33104.28-5.68767-2.567-5.68767-.98 0-1.913.65269-2.38 1.67832-.56 1.30536-.653 2.56409-.653 4.00935v11.3752c-.047.4196-.42.7459-.84.7459z"/><path d="m66.0796 13.1002c0 1.5851.0467 2.937-.7467 4.3823-.6533 1.1655-1.68 1.8648-2.8466 1.8648-1.5867 0-2.52-1.2122-2.52-2.9837 0-3.4965 3.1267-4.1492 6.1133-4.1492zm4.1533 10.0233c-.28.2331-.6533.2797-.98.0932-1.3533-1.1189-1.6333-1.6783-2.38-2.7506-2.24 2.2844-3.8733 2.9837-6.7666 2.9837-3.4534 0-6.16-2.1445-6.16-6.3869 0-3.3566 1.82-5.5944 4.3867-6.7133 2.2399-.97901 5.3666-1.16548 7.7466-1.4452v-.51282c0-.97902.0933-2.14451-.5133-2.98367-.5134-.74592-1.4467-1.07227-2.2867-1.07227-1.5866 0-2.9867.79255-3.3133 2.47087-.0934.37296-.3267.7459-.7.7459l-3.9667-.41957c-.3266-.09324-.7-.32634-.6066-.83915.9333-4.84847 5.2733-6.29369 9.1933-6.29369 2.0066 0 4.62.512816 6.2066 2.05127 2.0067 1.8648 1.82 4.38228 1.82 7.08623v6.3869c0 1.9114.7934 2.7506 1.54 3.8229.28.3729.3267.8391 0 1.0722-.8866.6993-2.38 2.0047-3.22 2.704z"/><path d="m12.18 13.1002c0 1.5851.0467 2.937-.7467 4.3823-.6533 1.1655-1.67998 1.8648-2.84664 1.8648-1.58667 0-2.52-1.2122-2.52-2.9837 0-3.4965 3.12667-4.1492 6.11334-4.1492zm4.1067 10.0233c-.28.2331-.6534.2797-.98.0932-1.3534-1.1189-1.6334-1.6783-2.38-2.7506-2.24 2.2844-3.87337 2.9837-6.7667 2.9837-3.45334 0-6.16-2.1445-6.16-6.3869 0-3.3566 1.82-5.5944 4.38666-6.7133 2.24-.97901 5.36667-1.16548 7.74664-1.4452v-.51282c0-.97902.0934-2.14451-.5133-2.98367-.5133-.74592-1.4467-1.07227-2.28667-1.07227-1.58667 0-2.98667.79255-3.31334 2.47087-.09333.37296-.32666.7459-.7.7459l-3.96666-.41957c-.32667-.09324-.699994-.32634-.606661-.83915.933331-4.84847 5.273331-6.29369 9.193331-6.29369 2.0067 0 4.62.512816 6.2067 2.05127 2.0066 1.8648 1.82 4.38228 1.82 7.08623v6.3869c0 1.9114.7933 2.7506 1.54 3.8229.28.3729.3266.8391 0 1.0722-.8867.6993-2.38 2.0047-3.22 2.704z"/></g></svg>

<svg width="133" height="40" viewBox="0 0 133 40" fill="none" xmlns="http://www.w3.org/2000/svg">
<path fill-rule="evenodd" clip-rule="evenodd" d="M82.507 31.2817C74.807 36.9694 63.607 39.9996 53.947 39.9996C40.4136 39.9996 28.2803 35.0113 19.0403 26.713C18.3403 26.0603 18.947 25.1745 19.8337 25.6873C29.7737 31.4682 42.047 34.9181 54.7403 34.9181C63.2803 34.9181 72.707 33.1465 81.387 29.4635C82.6936 28.9507 83.767 30.3493 82.507 31.2817Z" fill="#576472"/>
<path fill-rule="evenodd" clip-rule="evenodd" d="M85.7275 27.5991C84.7475 26.3403 79.1942 26.993 76.7208 27.3194C75.9742 27.4126 75.8342 26.7599 76.5342 26.2937C80.9675 23.1702 88.2008 24.1026 89.0408 25.1282C89.8808 26.1539 88.8075 33.4266 84.6542 36.8765C84.0008 37.3893 83.3942 37.1096 83.6742 36.4103C84.6075 34.0793 86.7075 28.9044 85.7275 27.5991Z" fill="#576472"/>
<path fill-rule="evenodd" clip-rule="evenodd" d="M76.8607 4.38217V1.35188C76.8607 0.885679 77.1874 0.605957 77.6074 0.605957H91.1407C91.5607 0.605957 91.934 0.932299 91.934 1.35188V3.91597C91.934 4.33555 91.5607 4.89499 90.9074 5.82739L83.9074 15.804C86.5207 15.7574 89.274 16.1304 91.6074 17.4357C92.1207 17.7155 92.2607 18.1817 92.3074 18.6012V21.818C92.3074 22.2842 91.8407 22.797 91.3274 22.5173C87.174 20.3262 81.6207 20.0931 77.0474 22.5639C76.5807 22.797 76.0674 22.3308 76.0674 21.8646V18.7877C76.0674 18.3215 76.0674 17.4824 76.5807 16.7364L84.7007 5.12809H77.654C77.234 5.12809 76.8607 4.80175 76.8607 4.38217Z" fill="#576472"/>
<path fill-rule="evenodd" clip-rule="evenodd" d="M27.533 23.1701H23.4263C23.053 23.1235 22.7264 22.8438 22.6797 22.4708V1.39864C22.6797 0.979064 23.053 0.652722 23.473 0.652722H27.2997C27.7197 0.652722 27.9997 0.979062 28.0464 1.35202V4.10259H28.1397C29.1197 1.44526 31.033 0.186523 33.553 0.186523C36.1197 0.186523 37.753 1.44526 38.873 4.10259C39.853 1.44526 42.1397 0.186523 44.5663 0.186523C46.293 0.186523 48.1597 0.885822 49.3263 2.51752C50.633 4.28907 50.353 6.85317 50.353 9.13755V22.4708C50.353 22.8904 49.9797 23.2167 49.5597 23.2167H45.4997C45.0797 23.1701 44.753 22.8438 44.753 22.4708V11.2821C44.753 10.3963 44.8463 8.15852 44.6597 7.31936C44.333 5.92076 43.4463 5.50119 42.233 5.50119C41.253 5.50119 40.1797 6.15387 39.7597 7.22613C39.3397 8.29839 39.3863 10.0699 39.3863 11.2821V22.4708C39.3863 22.8904 39.013 23.2167 38.593 23.2167H34.4863C34.0663 23.1701 33.7397 22.8438 33.7397 22.4708V11.2821C33.7397 8.95106 34.113 5.45457 31.2197 5.45457C28.2797 5.45457 28.373 8.8112 28.373 11.2821V22.4708C28.3263 22.8438 27.9997 23.1701 27.533 23.1701Z" fill="#576472"/>
<path fill-rule="evenodd" clip-rule="evenodd" d="M103.6 0.186523C109.713 0.186523 113.027 5.40795 113.027 12.0746C113.027 18.5081 109.387 23.6363 103.6 23.6363C97.6265 23.6363 94.3599 18.4149 94.3599 11.8881C94.3132 5.31471 97.6265 0.186523 103.6 0.186523ZM103.6 4.52217C100.567 4.52217 100.38 8.67135 100.38 11.2354C100.38 13.7995 100.333 19.3007 103.553 19.3007C106.727 19.3007 106.913 14.8718 106.913 12.1678C106.913 10.3963 106.82 8.25177 106.307 6.57345C105.84 5.08162 104.907 4.52217 103.6 4.52217Z" fill="#576472"/>
<path fill-rule="evenodd" clip-rule="evenodd" d="M120.914 23.1701H116.807C116.387 23.1235 116.061 22.7972 116.061 22.4242V1.3054C116.107 0.932439 116.434 0.6061 116.854 0.6061H120.681C121.054 0.6061 121.334 0.885828 121.427 1.21217V4.42894H121.521C122.687 1.5385 124.274 0.186523 127.121 0.186523C128.941 0.186523 130.761 0.839196 131.927 2.65737C133.001 4.33569 133.001 7.1795 133.001 9.23078V22.5174C132.954 22.8904 132.627 23.1701 132.207 23.1701H128.101C127.727 23.1235 127.401 22.8438 127.354 22.5174V11.049C127.354 8.71796 127.634 5.36133 124.787 5.36133C123.807 5.36133 122.874 6.01402 122.407 7.03965C121.847 8.34501 121.754 9.60374 121.754 11.049V22.4242C121.707 22.8438 121.334 23.1701 120.914 23.1701Z" fill="#576472"/>
<path fill-rule="evenodd" clip-rule="evenodd" d="M66.0796 13.1002C66.0796 14.6853 66.1263 16.0372 65.3329 17.4825C64.6796 18.648 63.6529 19.3473 62.4863 19.3473C60.8996 19.3473 59.9663 18.1351 59.9663 16.3636C59.9663 12.8671 63.093 12.2144 66.0796 12.2144V13.1002ZM70.2329 23.1235C69.9529 23.3566 69.5796 23.4032 69.2529 23.2167C67.8996 22.0978 67.6196 21.5384 66.8729 20.4661C64.6329 22.7505 62.9996 23.4498 60.1063 23.4498C56.6529 23.4498 53.9463 21.3053 53.9463 17.0629C53.9463 13.7063 55.7663 11.4685 58.333 10.3496C60.5729 9.37059 63.6996 9.18412 66.0796 8.9044V8.39158C66.0796 7.41256 66.1729 6.24707 65.5663 5.40791C65.0529 4.66199 64.1196 4.33564 63.2796 4.33564C61.693 4.33564 60.2929 5.12819 59.9663 6.80651C59.8729 7.17947 59.6396 7.55241 59.2663 7.55241L55.2996 7.13284C54.973 7.0396 54.5996 6.8065 54.693 6.29369C55.6263 1.44522 59.9663 0 63.8863 0C65.8929 0 68.5063 0.512816 70.0929 2.05127C72.0996 3.91607 71.9129 6.43355 71.9129 9.1375V15.5244C71.9129 17.4358 72.7063 18.275 73.4529 19.3473C73.7329 19.7202 73.7796 20.1864 73.4529 20.4195C72.5663 21.1188 71.0729 22.4242 70.2329 23.1235Z" fill="#576472"/>
<path fill-rule="evenodd" clip-rule="evenodd" d="M12.18 13.1002C12.18 14.6853 12.2267 16.0372 11.4333 17.4825C10.78 18.648 9.75332 19.3473 8.58666 19.3473C6.99999 19.3473 6.06666 18.1351 6.06666 16.3636C6.06666 12.8671 9.19333 12.2144 12.18 12.2144V13.1002ZM16.2867 23.1235C16.0067 23.3566 15.6333 23.4032 15.3067 23.2167C13.9533 22.0978 13.6733 21.5384 12.9267 20.4661C10.6867 22.7505 9.05333 23.4498 6.16 23.4498C2.70666 23.4498 0 21.3053 0 17.0629C0 13.7063 1.82 11.4685 4.38666 10.3496C6.62666 9.37059 9.75333 9.18412 12.1333 8.9044V8.39158C12.1333 7.41256 12.2267 6.24707 11.62 5.40791C11.1067 4.66199 10.1733 4.33564 9.33333 4.33564C7.74666 4.33564 6.34666 5.12819 6.01999 6.80651C5.92666 7.17947 5.69333 7.55241 5.31999 7.55241L1.35333 7.13284C1.02666 7.0396 0.653336 6.8065 0.746669 6.29369C1.68 1.44522 6.02 0 9.94 0C11.9467 0 14.56 0.512816 16.1467 2.05127C18.1533 3.91607 17.9667 6.43355 17.9667 9.1375V15.5244C17.9667 17.4358 18.76 18.275 19.5067 19.3473C19.7867 19.7202 19.8333 20.1864 19.5067 20.4195C18.62 21.1188 17.1267 22.4242 16.2867 23.1235Z" fill="#576472"/>
</svg>
